X:1
T:Sonata XI
T:Sonata XI
T:Augusto Kühnel (1698)
C:Augusto Kühnel (1698)
%%score 1 2
L:1/8
Q:1/4=120
M:4/4
K:Dmin
V:1 treble 
V:2 bass 
V:1
"^Preluda" [fa]4 [eg]4 | ([df]c) ([Bf]A) [GBf]2 T[ce]>f | [FAf]4 [d^f]2 Tf>g | %3
 [GBdg]4 [Ee^g]2 Tg>a | [Aa]2 aA [Bda]2 [Bda]g | [Acg]2 [Acg]f [GBf]2 [GBf]e/d/ | %6
 [GA^c]2 [FAd]2 [EGd]2 T[EGc]>d | [DFAd]A/G/ FE/D/ ^CA e/G/F/E/ | F/E/D/E/ F/G/A/=B/ ^cA e/g/f/e/ | %9
 dB d/e/f/g/ e/f/e/d/ c/B/A/G/ | AF D/A/=B/A/ ^G/E/D/E/ C/E/A/C/ | %11
 D/A/=B/c/ T[EB]>A A,E A/G/^F/E/ | DA d/c/=B/A/ Gd g/f/e/d/ | cg c'/b/a/g/ f/g/f/e/ d/c/B/A/ | %14
 G/F/E/D/ C/E/D/E/ F/G/F/E/ D/C/B,/A,/ | G/d/g/f/ e/d/^c/B/ Aa e[fa] | %16
 [^ce][df] [Ac]G [FA]d [EG][ce] | [DA][df] [Gdg]f [Ade]2 T^c2 | [DAd]8 |] %19
V:2
 d4-"^4\n2" d2"^5\n3" ^c2 | da b"^6"a"^7" g2"^7" c2 | f4"^#" d4 | g4"^7\n#" e4 | %4
"^b" a4"^7""^6" b4 |"^7""^6" a4"^7""^6  5" g4- |"^4#\n2" g2"^6" f2"^7" e2"^7\n#" A2 | %7
 d4"^6""^5" ^c4 | d4"^#" A4 | B4 c4 | f2"^6+" d2"^#" e2"^6" c2 | d2"^4""^#" e2"^#" A2"^6" ^c2 | %12
"^#" d2"^6" ^f2 g2"^6" =B2 | c2"^6" e2 f2 B2 | c4 F4 | G4"^#" A2-"^5\n#""^6\n4" A2 | %16
"^5\n#""^6\n4" A2-"^5\n#" AG"^6" F2"^6+" E2 | D2 G2"^5\n4""^#" A4 | D8 |] %19

